packages/sources/assets/src/assets/flag-ph.svg

<svg width="28" height="20" viewBox="0 0 28 20" fill="none" xmlns="http://www.w3.org/2000/svg">
<rect x="0.25" y="0.25" width="27.5" height="19.5" rx="1.75" fill="white" stroke="#F5F5F5" stroke-width="0.5"/>
<mask id="mask0_503_3585" style="mask-type:alpha" maskUnits="userSpaceOnUse" x="0" y="0" width="28" height="20">
<rect x="0.25" y="0.25" width="27.5" height="19.5" rx="1.75" fill="white" stroke="white" stroke-width="0.5"/>
</mask>
<g mask="url(#mask0_503_3585)">
<path fill-rule="evenodd" clip-rule="evenodd" d="M0 20H28V9.33334H12.4444L13.3333 10L0 20Z" fill="#DD1C34"/>
<path fill-rule="evenodd" clip-rule="evenodd" d="M28 9.33333H12.4444L0 0H28V9.33333Z" fill="#0D4BC3"/>
<path fill-rule="evenodd" clip-rule="evenodd" d="M1.99998 3.99999C2.36817 3.99999 2.66665 3.70151 2.66665 3.33332C2.66665 2.96513 2.36817 2.66666 1.99998 2.66666C1.63179 2.66666 1.33331 2.96513 1.33331 3.33332C1.33331 3.70151 1.63179 3.99999 1.99998 3.99999ZM9.99998 10.6667C10.3682 10.6667 10.6666 10.3682 10.6666 9.99999C10.6666 9.6318 10.3682 9.33332 9.99998 9.33332C9.63179 9.33332 9.33331 9.6318 9.33331 9.99999C9.33331 10.3682 9.63179 10.6667 9.99998 10.6667ZM2.66665 16.6667C2.66665 17.0348 2.36817 17.3333 1.99998 17.3333C1.63179 17.3333 1.33331 17.0348 1.33331 16.6667C1.33331 16.2985 1.63179 16 1.99998 16C2.36817 16 2.66665 16.2985 2.66665 16.6667ZM4.53205 11.3266L3.39103 13.0796L3.82377 11.0332C3.75413 10.9763 3.69035 10.9125 3.63348 10.8429L1.58705 11.2756L3.34002 10.1346C3.33559 10.0903 3.33331 10.0454 3.33331 9.99999C3.33331 9.95456 3.33559 9.90966 3.34002 9.8654L1.58705 8.72438L3.63348 9.15711C3.69035 9.08747 3.75413 9.0237 3.82377 8.96682L3.39103 6.92039L4.53205 8.67337C4.57632 8.66893 4.62122 8.66666 4.66665 8.66666C4.71208 8.66666 4.75698 8.66893 4.80124 8.67337L5.94226 6.92039L5.50953 8.96682C5.57916 9.0237 5.64294 9.08747 5.69982 9.15711L7.74624 8.72438L5.99327 9.8654C5.99771 9.90966 5.99998 9.95456 5.99998 9.99999C5.99998 10.0454 5.99771 10.0903 5.99327 10.1346L7.74624 11.2756L5.69982 10.8429C5.64294 10.9125 5.57916 10.9763 5.50953 11.0332L5.94226 13.0796L4.80124 11.3266C4.75698 11.3311 4.71208 11.3333 4.66665 11.3333C4.62122 11.3333 4.57632 11.3311 4.53205 11.3266Z" fill="#FDD64D"/>
</g>
</svg>

<svg width="28" height="20" fill="none" xmlns="http://www.w3.org/2000/svg"><rect x=".25" y=".25" width="27.5" height="19.5" rx="1.75" fill="#fff" stroke="#F5F5F5" stroke-width=".5"/><mask id="a" style="mask-type:alpha" maskUnits="userSpaceOnUse" x="0" y="0" width="28" height="20"><rect x=".25" y=".25" width="27.5" height="19.5" rx="1.75" fill="#fff" stroke="#fff" stroke-width=".5"/></mask><g mask="url(#a)" fill-rule="evenodd" clip-rule="evenodd"><path d="M0 20h28V9.333H12.444l.89.667L0 20Z" fill="#DD1C34"/><path d="M28 9.333H12.444L0 0h28v9.333Z" fill="#0D4BC3"/><path d="M2 4a.667.667 0 1 0 0-1.333A.667.667 0 0 0 2 4Zm8 6.667a.667.667 0 1 0 0-1.334.667.667 0 0 0 0 1.334Zm-7.333 6a.667.667 0 1 1-1.334 0 .667.667 0 0 1 1.334 0Zm1.865-5.34L3.391 13.08l.433-2.047a1.344 1.344 0 0 1-.19-.19l-2.047.433 1.753-1.141a1.352 1.352 0 0 1 0-.27l-1.753-1.14 2.046.432c.057-.07.121-.133.19-.19L3.392 6.92l1.141 1.753a1.348 1.348 0 0 1 .27 0l1.14-1.753-.432 2.047c.07.057.133.12.19.19l2.046-.433-1.753 1.141a1.348 1.348 0 0 1 0 .27l1.753 1.14-2.046-.432c-.057.07-.12.133-.19.19l.432 2.047-1.14-1.753a1.33 1.33 0 0 1-.27 0Z" fill="#FDD64D"/></g></svg>
